src/assets/Icons/Gradient.svg

<svg width="689" height="160" viewBox="0 0 689 160" fill="none" xmlns="http://www.w3.org/2000/svg">
<path fill-rule="evenodd" clip-rule="evenodd" d="M0 159.955L4.36103 142.455L19.6502 141.704L30.3373 135.14L41.5101 134.779L49.6521 125.128L56.8132 100.036L61.4039 91.0583L73.6643 109.785L83.6355 112.634L90.9314 107.198L99.7347 83.2335L124.975 131.823L135.367 110.895L147.281 121.399L153.703 105.384L154.956 97.7L164.628 89.8529L169.622 79.1894L175.143 94.085L174.229 103.866L179.322 105.312L183.273 100.958L193.342 32.03L203.185 122.417L211.734 109.533V102.174L219.042 94.5708L222.463 88.7426L228.759 79.9773L243.728 89.1173L251.179 94.085L257.195 90.8693L267.686 105.323L282.948 76.9154L287.413 92.4067L296.982 103.124L306.258 99.6912L310.591 92.4046L317.526 89.1131L318.4 82.8568L326.314 67.4743L337.933 71.8431L344.186 60.666L357.409 147.86L368.767 129.924L383.736 128.67L401.672 141.399L408.641 91.7448L417.382 94.5399L421.496 88.7042L423.814 90.5683L428.162 89.9992L430.647 92.5103L437.55 94.148L437.673 99.704L445.924 103.226L456.235 102.447L456.777 93.1466L459.37 56.6058L467.113 57.2357L476.173 65.6198L498.842 48.4747L508.615 30.8983L512.962 36.4639L514.605 41.9835L522.57 48.3082L536.104 36.6027L560.826 -3.05176e-05L568.003 13.6411L588.287 35.9194L595.927 26.1014L604.234 21.5437L618.401 28.3712L627.337 21.785L642.824 30.6773L650.069 13.1222L664.147 13.5984L666.671 17.6618L689 7.90266V159.955H57.0295H0Z" fill="url(#paint0_linear_1_25)"/>
<defs>
<linearGradient id="paint0_linear_1_25" x1="55.3508" y1="52.9883" x2="55.3508" y2="187.244" gradientUnits="userSpaceOnUse">
<stop stop-color="#0294FF" stop-opacity="0.45"/>
<stop offset="1" stop-color="white" stop-opacity="0.01"/>
</linearGradient>
</defs>
</svg>

<svg width="689" height="160" fill="none" xmlns="http://www.w3.org/2000/svg"><path fill-rule="evenodd" clip-rule="evenodd" d="m0 159.955 4.361-17.5 15.29-.751 10.686-6.564 11.173-.361 8.142-9.651 7.161-25.092 4.59-8.978 12.261 18.727 9.971 2.849 7.296-5.436 8.804-23.964 25.24 48.589 10.392-20.928 11.914 10.504 6.422-16.015 1.253-7.684 9.672-7.847 4.994-10.664 5.521 14.896-.914 9.781 5.093 1.446 3.951-4.354 10.069-68.928 9.843 90.387 8.549-12.884v-7.359l7.308-7.603 3.421-5.828 6.296-8.766 14.969 9.14 7.451 4.968 6.016-3.216 10.491 14.454 15.262-28.408 4.465 15.492 9.569 10.717 9.276-3.433 4.333-7.286 6.935-3.292.874-6.256 7.914-15.383 11.619 4.37 6.253-11.178 13.223 87.194 11.358-17.936 14.969-1.254 17.936 12.729 6.969-49.654 8.741 2.795 4.114-5.836 2.318 1.864 4.348-.569 2.485 2.511 6.903 1.638.123 5.556 8.251 3.522 10.311-.779.542-9.3 2.593-36.541 7.743.63 9.06 8.384 22.669-17.145 9.773-17.577 4.347 5.566 1.643 5.52 7.965 6.324 13.534-11.705L560.826 0l7.177 13.641 20.284 22.278 7.64-9.818 8.307-4.557 14.167 6.827 8.936-6.586 15.487 8.892 7.245-17.555 14.078.476 2.524 4.064L689 7.902v152.053H0Z" fill="url(#a)"/><defs><linearGradient id="a" x1="55.351" y1="52.988" x2="55.351" y2="187.244" gradientUnits="userSpaceOnUse"><stop stop-color="#0294FF" stop-opacity=".45"/><stop offset="1" stop-color="#fff" stop-opacity=".01"/></linearGradient></defs></svg>
